symbols/web/king_bed/materialsymbolsrounded/king_bed_gradN25fill1_40px.svg

<svg xmlns="http://www.w3.org/2000/svg" height="40" width="40"><path d="M3.625 28.167v-8.542q0-1.125.75-1.896.75-.771 1.875-.771h.833v-5.625q0-1.083.771-1.854.771-.771 1.854-.771H30.25q1.083 0 1.854.771.771.771.771 1.854v5.625h.875q1.083 0 1.854.771.771.771.771 1.854v8.584h-1.917l-.666 2.5q-.084.333-.334.562-.25.229-.541.229-.375 0-.584-.229-.208-.229-.333-.604l-.625-2.458H8.667L8 30.667q-.125.333-.354.562-.229.229-.521.229-.375 0-.604-.229-.229-.229-.313-.604l-.625-2.458Zm17.708-11.209h8.917v-5.625h-8.917Zm-11.625 0h9v-5.625h-9Z"/></svg>

<svg xmlns="http://www.w3.org/2000/svg" height="40" width="40"><path d="M3.625 28.167V19.625Q3.625 18.5 4.375 17.729Q5.125 16.958 6.25 16.958H7.083V11.333Q7.083 10.25 7.854 9.479Q8.625 8.708 9.708 8.708H30.25Q31.333 8.708 32.104 9.479Q32.875 10.25 32.875 11.333V16.958H33.75Q34.833 16.958 35.604 17.729Q36.375 18.5 36.375 19.583V28.167H34.458L33.792 30.667Q33.708 31 33.458 31.229Q33.208 31.458 32.917 31.458Q32.542 31.458 32.333 31.229Q32.125 31 32 30.625L31.375 28.167H8.667L8 30.667Q7.875 31 7.646 31.229Q7.417 31.458 7.125 31.458Q6.75 31.458 6.521 31.229Q6.292 31 6.208 30.625L5.583 28.167ZM21.333 16.958H30.25V11.333Q30.25 11.333 30.25 11.333Q30.25 11.333 30.25 11.333H21.333ZM9.708 16.958H18.708V11.333H9.708Q9.708 11.333 9.708 11.333Q9.708 11.333 9.708 11.333Z"/></svg>
